!!!COM: Macque, Giovanni de
!!!CDT:
!!!PTL: Il secondo libro de madrigali a sei voci
!!!PPP: Venice
!!!PPR: Angelo Gardano
!!!PDT: 1589
!!!RISM: M 90
!!!rime: 342
!!!OTL:	Già fu dolce mia speme
!!!AGN: Madrigal
!!!SCT: Trm0342d
!!!SCA: Trm0342d
!!!voices: 6
**kern	**text
*I"Quinto	*
*I'V	*
*oclefC4	*

*clefGv2	*
*k[]	*
*M2/1	*
=1	=1
1B	Già
1A	fu
=2	=2
2A	mia
1A	dol-
2B	-ce
=3	=3
1c	spe-
2c	-me
2c	As-
=4	=4
2G	-sai
2.c	de-
4c	-bi-
2B-X	-le e
=5	=5
4.A	len-
8B	.
1c	.
2G	-ta,
=6	=6
4r	.
4C	Hor
4D	cre-
4E	-sce
4F	sì
4G	ch'el-
4A	-la
4B	pia-
=7	=7
4c	-cer
4d	di-
2e	-ven-
2A	-ta.
2r	.
=8	=8
0r	.
=9	=9
1r	.
2r	.
[2d	Ma
=10	=10
4d]	.
4d	per-
2G	-ch'io
4G	spe-
4G	-r'in-
2A	-sie-
=11	=11
2G	-me
4r	.
4G	E in-
4G	-sie-
4.G	-m'hab-
8G	-bia
4G	di-
=12	=12
2A	-let-
4d	-to,
4d	E in-
4c	-sie-
4.c	-m'hab-
8c	-bia
4d	di-
=13	=13
1A	-let-
2A	-to,
4r	.
4e	Mai
=14	=14
4e	non
4d	a-
4e	-dem-
4f	-p'A-
4e	-mor
4c	o-
4d	-gni
4e	mio af-
=15	=15
2d	-fet-
2e	-to;
1r	.
=16	=16
1r	.
2r	.
4r	.
4d	E
=17	=17
4.B	sem-
8B	-pr'il
4B	mio
4d	pia-
2G	-ce-
4G	-re,
4B	E
=18	=18
4.c	sem-
8c	-pr'il
4c	mio
4B	pia-
2G	-ce-
2G	-re
=19	=19
2r	.
2G	Tem-
2A	-pran-
2B	-do
=20	=20
1c	va,
2r	.
4r	.
4c	per-
=21	=21
4d	-ché
4B	mag-
4c	-gior
4A	lo
4.B	spe-
8c	.
2d	.
=22	=22
2G	-re,
2r	.
4r	.
4c	Tem-
2B	-pran-
=23	=23
1A	-do
4G	va,
4G	Tem-
4.A	-pran-
8B	-do
=24	=24
2c	va,
2r	.
1r	.
=25	=25
4r	.
4B	per-
4.e	-ché
8e	mag-
2d	-gior
2D	lo
=26	=26
1A	spe-
[1Gl	-re.
=27	=27
0G]	.
==	==
*-	*-
!!!RDF**kern: l = terminal long
!!!ENC: Emiliano Ricciardi
!!!END: 2017/11
!!!EED: Deutsch, Catherine
!!!EEV: 2018/07/09
!!!YEC: Copyright 2018 Emiliano Ricciardi, All Rights Reserved
!!!ONB: Translated from MusicXML on 2018/07/09 and edited by Craig Stuart Sapp
